sanis/img/main/icons/profile.svg

<svg width="34" height="34" viewBox="0 0 34 34" fill="none" xmlns="http://www.w3.org/2000/svg">
<circle cx="17" cy="11" r="6" stroke="black" stroke-width="2"/>
<mask id="path-3-inside-1_501_5116" fill="white">
<path d="M8.86957 19.4285C10.6915 17.5239 23.3085 17.5237 25.1304 19.4285C26.2541 20.6033 27.0833 23.5895 27.5538 25.7058C27.8204 26.9049 26.8895 28 25.6612 28H8.33882C7.11045 28 6.17963 26.9049 6.4462 25.7058C6.91669 23.5895 7.74585 20.6032 8.86957 19.4285Z"/>
</mask>
<path d="M25.1304 19.4285L23.6851 20.8109L25.1304 19.4285ZM6.4462 25.7058L4.49386 25.2718L6.4462 25.7058ZM27.5538 25.7058L29.5061 25.2718L27.5538 25.7058ZM10.3148 20.811C10.2029 20.928 10.2246 20.8459 10.6629 20.6963C11.0428 20.5666 11.5734 20.44 12.243 20.3313C13.5768 20.115 15.27 20 17 20C18.7301 20 20.4232 20.1149 21.757 20.3313C22.4266 20.4399 22.9572 20.5665 23.337 20.6962C23.7754 20.8459 23.797 20.9279 23.6851 20.8109L26.5757 18.0461C26.0083 17.4529 25.2372 17.1183 24.6297 16.9108C23.9636 16.6834 23.1954 16.5124 22.3975 16.3829C20.7963 16.1231 18.8797 16 17 16C15.1203 16 13.2037 16.1232 11.6025 16.383C10.8046 16.5124 10.0364 16.6834 9.37035 16.9109C8.76288 17.1183 7.99172 17.4529 7.42435 18.046L10.3148 20.811ZM23.6851 20.8109C23.9273 21.0641 24.302 21.7432 24.7 22.8767C25.0696 23.9294 25.3746 25.1195 25.6014 26.1398L29.5061 25.2718C29.2625 24.1758 28.9176 22.8147 28.4741 21.5515C28.059 20.3691 27.4573 18.9677 26.5757 18.0461L23.6851 20.8109ZM25.6612 26H8.33882V30H25.6612V26ZM8.39854 26.1398C8.62538 25.1195 8.93037 23.9293 9.29999 22.8766C9.69798 21.7431 10.0727 21.064 10.3148 20.811L7.42435 18.046C6.54268 18.9676 5.941 20.3691 5.52586 21.5515C5.08234 22.8147 4.73751 24.1758 4.49386 25.2718L8.39854 26.1398ZM8.33882 26C8.33183 26 8.33589 25.999 8.3448 26.0033C8.35178 26.0066 8.3601 26.0123 8.36856 26.0225C8.37725 26.0329 8.38834 26.0509 8.39506 26.0774C8.40255 26.1068 8.4005 26.131 8.39854 26.1398L4.49386 25.2718C3.93259 27.7966 5.91053 30 8.33882 30V26ZM25.6014 26.1398C25.5995 26.131 25.5974 26.1068 25.6049 26.0774C25.6117 26.0509 25.6227 26.0329 25.6314 26.0225C25.6399 26.0123 25.6482 26.0066 25.6552 26.0033C25.6641 25.999 25.6682 26 25.6612 26V30C28.0895 30 30.0674 27.7965 29.5061 25.2718L25.6014 26.1398Z" fill="black" mask="url(#path-3-inside-1_501_5116)"/>
</svg>

<svg width="34" height="34" fill="none" xmlns="http://www.w3.org/2000/svg"><circle cx="17" cy="11" r="6" stroke="#000" stroke-width="2"/><mask id="a" fill="#fff"><path d="M8.87 19.428c1.822-1.904 14.438-1.904 16.26 0 1.124 1.175 1.953 4.162 2.424 6.278C27.82 26.905 26.89 28 25.66 28H8.34c-1.229 0-2.16-1.095-1.893-2.294.47-2.116 1.3-5.103 2.424-6.277z"/></mask><path d="M25.13 19.428l-1.445 1.383 1.445-1.383zM6.446 25.706l-1.952-.434 1.952.434zm21.108 0l1.952-.434-1.952.434zm-17.24-4.895c-.111.117-.09.035.349-.115.38-.13.91-.256 1.58-.365C13.577 20.115 15.27 20 17 20c1.73 0 3.423.115 4.757.331.67.109 1.2.236 1.58.365.438.15.46.232.348.115l2.89-2.765c-.567-.593-1.338-.928-1.945-1.135-.666-.228-1.435-.399-2.232-.528C20.796 16.123 18.88 16 17 16s-3.796.123-5.398.383c-.797.13-1.566.3-2.232.528-.607.207-1.378.542-1.946 1.135l2.89 2.765zm13.371 0c.242.253.617.932 1.015 2.066.37 1.052.675 2.242.901 3.263l3.905-.868c-.244-1.096-.588-2.457-1.032-3.72-.415-1.183-1.017-2.584-1.898-3.506l-2.89 2.765zM25.661 26H8.34v4h17.32v-4zM8.4 26.14c.226-1.02.531-2.21.901-3.263.398-1.134.773-1.813 1.015-2.066l-2.89-2.765c-.882.922-1.484 2.323-1.9 3.506-.443 1.263-.787 2.624-1.031 3.72l3.905.868zM8.34 26c-.007 0-.003-.001.006.003a.07.07 0 01.024.02c.008.01.02.028.026.054.008.03.005.054.004.063l-3.905-.868C3.933 27.797 5.91 30 8.339 30v-4zm17.262.14a.15.15 0 01.004-.063.14.14 0 01.026-.055.07.07 0 01.024-.019c.01-.004.013-.003.006-.003v4c2.428 0 4.406-2.203 3.845-4.728l-3.905.868z" fill="#000" mask="url(#a)"/></svg>
